**kern
*staff1
*tb8
=1-
*clefG2
*k[f#c#]
*M6/8
4a/
.
8a/
4g#/
.
8a/
=2
4dd\
.
8cc#'\
8cc#\L
8b\J
8a/
=3
4g/
.
8f#/
4e/
.
8d/
=4
!!linebreak:original
4b\
.
8a/
8a/L
8g/J
8f#/
=5
4e/
.
8d/
4g/
.
8f#/
=6
4b\
.
8cc#\
4b\
.
8a#/
=7
!!linebreak:original
4an/
.
8a/
4a/
.
8g#/
=8
4gn/
.
8g/
4g/
.
8f#/
=9
4a/
.
8g/
4ccn\
.
8b\
=10
!!linebreak:original
[2.dd\
.
.
.
.
.
=11
8dd\]
8cc#\L
8b\J
8a/L
8g/
8e/J
=12
4d/
.
8r
4r
.
8r
=13
!!linebreak:original
2.r
.
.
.
.
.
=14
2.r
.
.
.
.
.
=15
2.r
.
.
.
.
.
=16
2.r
.
.
.
.
.
==
*-
